flaticon/gastronomy/mixer.svg

<svg xmlns="http://www.w3.org/2000/svg" width="32" height="32" viewBox="0 0 24 24">
    <path d="M9.363281 9.515625L7.707031 9.515625C7.476562 9.515625 7.292969 9.703125 7.292969 9.929688 7.292969 10.160156 7.476562 10.34375 7.707031 10.34375L9.363281 10.34375C9.589844 10.34375 9.777344 10.160156 9.777344 9.929688 9.777344 9.703125 9.589844 9.515625 9.363281 9.515625zM7.707031 12L8.535156 12C8.761719 12 8.949219 11.816406 8.949219 11.585938 8.949219 11.355469 8.761719 11.171875 8.535156 11.171875L7.707031 11.171875C7.476562 11.171875 7.292969 11.355469 7.292969 11.585938 7.292969 11.816406 7.476562 12 7.707031 12zM9.363281 16.136719L7.707031 16.136719C7.476562 16.136719 7.292969 16.324219 7.292969 16.550781 7.292969 16.78125 7.476562 16.964844 7.707031 16.964844L9.363281 16.964844C9.589844 16.964844 9.777344 16.78125 9.777344 16.550781 9.777344 16.324219 9.589844 16.136719 9.363281 16.136719zM9.363281 12.828125L7.707031 12.828125C7.476562 12.828125 7.292969 13.011719 7.292969 13.242188 7.292969 13.46875 7.476562 13.65625 7.707031 13.65625L9.363281 13.65625C9.589844 13.65625 9.777344 13.46875 9.777344 13.242188 9.777344 13.011719 9.589844 12.828125 9.363281 12.828125zM7.707031 15.308594L8.535156 15.308594C8.761719 15.308594 8.949219 15.125 8.949219 14.898438 8.949219 14.667969 8.761719 14.484375 8.535156 14.484375L7.707031 14.484375C7.476562 14.484375 7.292969 14.667969 7.292969 14.898438 7.292969 15.125 7.476562 15.308594 7.707031 15.308594zM7.707031 15.308594"/>
    <path d="M 19.707031 6.207031 L 18.355469 6.207031 L 18.382812 6.011719 C 18.410156 5.519531 18.238281 5.050781 17.902344 4.691406 C 17.609375 4.382812 17.226562 4.203125 16.808594 4.15625 L 16.808594 3.308594 C 16.808594 2.625 16.253906 2.070312 15.570312 2.070312 L 14.742188 2.070312 L 14.742188 1.242188 C 14.742188 0.558594 14.183594 0 13.5 0 L 8.535156 0 C 7.851562 0 7.292969 0.558594 7.292969 1.242188 L 7.292969 2.070312 L 6.464844 2.070312 C 5.78125 2.070312 5.222656 2.625 5.222656 3.308594 L 5.222656 4.136719 L 4.300781 4.136719 C 3.839844 4.136719 3.417969 4.390625 3.199219 4.796875 C 2.984375 5.203125 3.007812 5.695312 3.261719 6.078125 L 4.824219 8.421875 L 5.792969 17.78125 C 5.855469 18.09375 5.996094 18.378906 6.179688 18.621094 L 5.222656 18.621094 C 4.539062 18.621094 3.984375 19.175781 3.984375 19.863281 L 3.984375 24 L 18.050781 24 L 18.050781 19.863281 C 18.050781 19.175781 17.496094 18.621094 16.808594 18.621094 L 16.140625 18.621094 C 16.496094 18.226562 16.71875 17.71875 16.75 17.160156 L 16.839844 16.550781 L 19.707031 16.550781 C 20.390625 16.550781 20.949219 15.996094 20.949219 15.308594 L 20.949219 7.449219 C 20.949219 6.765625 20.390625 6.207031 19.707031 6.207031 Z M 8.121094 1.242188 C 8.121094 1.011719 8.304688 0.828125 8.535156 0.828125 L 13.5 0.828125 C 13.726562 0.828125 13.914062 1.011719 13.914062 1.242188 L 13.914062 2.070312 L 8.121094 2.070312 Z M 6.050781 3.308594 C 6.050781 3.082031 6.238281 2.898438 6.464844 2.898438 L 15.570312 2.898438 C 15.796875 2.898438 15.984375 3.082031 15.984375 3.308594 L 15.984375 4.136719 L 6.050781 4.136719 Z M 16.808594 19.449219 C 17.039062 19.449219 17.222656 19.632812 17.222656 19.863281 L 17.222656 23.171875 L 4.808594 23.171875 L 4.808594 19.863281 C 4.808594 19.632812 4.996094 19.449219 5.222656 19.449219 Z M 16.117188 15.785156 L 16 16.550781 L 16.003906 16.550781 L 15.929688 17.078125 C 15.878906 17.941406 15.160156 18.621094 14.296875 18.621094 L 7.828125 18.621094 C 7.234375 18.621094 6.71875 18.199219 6.609375 17.65625 L 5.625 8.132812 L 3.949219 5.621094 C 3.824219 5.429688 3.894531 5.253906 3.929688 5.1875 C 3.964844 5.121094 4.074219 4.964844 4.300781 4.964844 L 16.613281 4.964844 C 16.875 4.964844 17.117188 5.070312 17.300781 5.261719 C 17.480469 5.453125 17.570312 5.703125 17.558594 5.929688 Z M 20.121094 15.308594 C 20.121094 15.539062 19.933594 15.722656 19.707031 15.722656 L 16.964844 15.722656 L 18.289062 7.035156 L 19.707031 7.035156 C 19.933594 7.035156 20.121094 7.21875 20.121094 7.449219 Z M 20.121094 15.308594"/>
    <path d="M7.085938 19.863281C6.289062 19.863281 5.636719 20.511719 5.636719 21.308594 5.636719 22.109375 6.289062 22.757812 7.085938 22.757812 7.886719 22.757812 8.535156 22.109375 8.535156 21.308594 8.535156 20.511719 7.886719 19.863281 7.085938 19.863281zM7.085938 21.929688C6.742188 21.929688 6.464844 21.652344 6.464844 21.308594 6.464844 20.96875 6.742188 20.691406 7.085938 20.691406 7.429688 20.691406 7.707031 20.96875 7.707031 21.308594 7.707031 21.652344 7.429688 21.929688 7.085938 21.929688zM13.5 21.308594C13.5 22.109375 14.148438 22.757812 14.949219 22.757812 15.746094 22.757812 16.398438 22.109375 16.398438 21.308594 16.398438 20.511719 15.746094 19.863281 14.949219 19.863281 14.148438 19.863281 13.5 20.511719 13.5 21.308594zM14.949219 20.691406C15.289062 20.691406 15.570312 20.96875 15.570312 21.308594 15.570312 21.652344 15.289062 21.929688 14.949219 21.929688 14.605469 21.929688 14.328125 21.652344 14.328125 21.308594 14.328125 20.96875 14.605469 20.691406 14.949219 20.691406zM10.191406 19.863281C9.960938 19.863281 9.777344 20.046875 9.777344 20.277344L9.777344 22.34375C9.777344 22.574219 9.960938 22.757812 10.191406 22.757812 10.417969 22.757812 10.601562 22.574219 10.601562 22.34375L10.601562 20.277344C10.601562 20.046875 10.417969 19.863281 10.191406 19.863281zM11.84375 19.863281C11.617188 19.863281 11.429688 20.046875 11.429688 20.277344L11.429688 22.34375C11.429688 22.574219 11.617188 22.757812 11.84375 22.757812 12.074219 22.757812 12.257812 22.574219 12.257812 22.34375L12.257812 20.277344C12.257812 20.046875 12.074219 19.863281 11.84375 19.863281zM11.84375 19.863281"/>
</svg>

<svg xmlns="http://www.w3.org/2000/svg" width="32" height="32" viewBox="0 0 24 24">
    <path d="M9.363 9.516H7.707a.414.414 0 0 0 0 .828h1.656a.414.414 0 0 0 0-.828zm0 0M7.707 12h.828a.414.414 0 0 0 0-.828h-.828a.412.412 0 0 0-.414.414c0 .23.184.414.414.414zm0 0M9.363 16.137H7.707a.414.414 0 0 0 0 .828h1.656a.414.414 0 0 0 0-.828zm0 0M9.363 12.828H7.707a.414.414 0 0 0 0 .828h1.656a.414.414 0 0 0 0-.828zm0 0M7.707 15.309h.828a.413.413 0 0 0 .414-.41.414.414 0 0 0-.414-.415h-.828a.412.412 0 1 0 0 .825zm0 0"/>
    <path d="M19.707 6.207h-1.352l.028-.195a1.774 1.774 0 0 0-.48-1.32 1.758 1.758 0 0 0-1.094-.536V3.31c0-.684-.555-1.239-1.239-1.239h-.828v-.828C14.742.56 14.184 0 13.5 0H8.535c-.683 0-1.242.559-1.242 1.242v.828h-.828c-.684 0-1.242.555-1.242 1.239v.828H4.3c-.461 0-.883.254-1.102.66-.215.406-.191.898.063 1.281l1.562 2.344.969 9.36c.062.312.203.597.387.84h-.957a1.24 1.24 0 0 0-1.239 1.241V24h14.067v-4.137a1.24 1.24 0 0 0-1.242-1.242h-.668c.355-.394.578-.902.609-1.46l.09-.61h2.867c.684 0 1.242-.555 1.242-1.242v-7.86c0-.683-.558-1.242-1.242-1.242zM8.121 1.242c0-.23.184-.414.414-.414H13.5c.227 0 .414.184.414.414v.828H8.121zM6.051 3.31c0-.227.187-.41.414-.41h9.105c.227 0 .414.183.414.41v.828H6.051zm10.758 16.14c.23 0 .414.184.414.414v3.309H4.809v-3.309c0-.23.187-.414.414-.414zm-.692-3.664l-.117.766h.004l-.074.527a1.641 1.641 0 0 1-1.633 1.543H7.828c-.594 0-1.11-.422-1.219-.965l-.984-9.523L3.949 5.62a.417.417 0 0 1-.02-.434.413.413 0 0 1 .372-.222h12.312c.262 0 .504.105.688.297.18.191.27.441.258.668zm4.004-.476c0 .23-.187.414-.414.414h-2.742l1.324-8.688h1.418c.227 0 .414.184.414.414zm0 0"/>
    <path d="M7.086 19.863a1.45 1.45 0 0 0-1.45 1.446 1.449 1.449 0 1 0 2.898 0c.001-.797-.647-1.446-1.448-1.446zm0 2.067a.62.62 0 1 1-.002-1.24.62.62 0 0 1 .002 1.24zm0 0M13.5 21.309a1.449 1.449 0 1 0 2.898 0 1.45 1.45 0 0 0-2.898 0zm1.45-.618c.34 0 .62.278.62.618a.62.62 0 1 1-.621-.617zm0 0M10.191 19.863a.412.412 0 0 0-.414.414v2.067a.412.412 0 1 0 .825 0v-2.067a.411.411 0 0 0-.41-.414zm0 0M11.844 19.863a.414.414 0 0 0-.414.414v2.067a.414.414 0 0 0 .828 0v-2.067a.412.412 0 0 0-.414-.414zm0 0"/>
</svg>
